!!! OTL: Huan\,Xiang^,Zh-,Niao^ (antastic Bird)
!!! YEC: Copyright 2001, Chia-wei
!! For Voice Only
!! [Freely]
**kern	**silbe
*clefG2	*LXinhua
*F:	*ping-ying
*M2/4	*
=5	=5
4r	.
8a	Zai\
8b	Ren/
=6	=6
4cc	Jian-
8dd	You^
8ee	Zhe
=7	=7
(8dd	Wu/
8cc)	|
8a	Qong/
8f	De
=8	=8
(8g	Huan\
8a)	|
[4d	Siang^
=9	=9
8d]	|
8r	.
8f	Qiang\
8g	Shiau^
=10	=10
4a	Niao^
8b-	Yi-
8a	Yang\
=11	=11
8b-	Fei-
8cc	Xiang\
8b-	Si\
8a	Mian\
=12	=12
(8a	Ba-
8b-)	|
[4a	Fang-
=13	=13
8a]	|
8r	.
8dd	Ge-
8ee	Sheng-
=14	=14
4ff;	A
8ee	Shi/
8dd	Ke\
=15	=15
(8a	Bu\
8g)	|
8f	Tin/
8f	Zai\
=16	=16
8g	Er^
(16g	Pan/
16f)	|
4g	Zhen\
=17	=17
4a	Dang\
8d	Yi\
8e	Sheng-
=18	=18
4f	Sheng-
8g	Shang\
(16a	Chu-
16g)	|
=19	=19
(8f	Gan^
8e)	|
8d	Qing/
8e	De
=20	=20
(8f	Mo/
8e)	|
[4d	Yan\
=21	=21
4.d]	|
8r	.
*-	*-
